!!!id: 18xx:2264
!!!COM: Troschel, Wilhelm
!!!OTL: Wieniec op. 17
!!!PDT:
!!!SMS-siglum: PL-Wtm
!!!SMS-shelfmark: R 2305
!!!NIFC-rismID: 1001114064
!!!URL-scan: http://repozytorium.nifc.pl/skany/pl-wtm-nut--r2305
!!!ONB-nifc:
!!!SMS-variant:
!!!SMS-altvar:
!!!OMD: Andante
**kern	**fing	**kern	**dynam	**kern	**text	**dynam
*part2	*part2	*part2	*part2	*part1	*part1	*part1
*staff3	*staff3	*staff2	*	*staff1	*staff1	*
*I"[fp.]	*	*I"[fp.]	*	*I"[Voce]	*	*
*clefF4	*	*clefG2	*	*clefG2	*	*
*k[b-e-a-d-]	*	*k[b-e-a-d-]	*	*k[b-e-a-d-]	*	*
*M4/4	*	*M4/4	*	*M4/4	*	*
*met(c)	*	*met(c)	*	*met(c)	*	*
=1	=1	=1	=1	=1	=1	=1
*all\right	*	*all\right	*	*all\right	*	*
*ped	*	*	*	*	*	*
!	!	!	!LO:DY:t=p.:rj	!	!	!
(8EE-\L 8E-	.	(4.cc^^\ 4.ccc	p	1r	.	.
8B-\ 8d- 8e-	.	.	.	.	.	.
8d-\J) 8e- 8g	.	.	.	.	.	.
*Xped	*	*	*	*	*	*
8r	.	8b-\) 8bb-	<	.	.	.
*ped	*	*	*	*	*	*
!LO:TX:t=P:problem:mixed beam	!	!	!	!	!	!
(8AAA-/L 8AA-	.	(4.ff^^\ 4.fff	.	.	.	.
8A-\ 8c 8e-	.	.	.	.	.	.
8c\J) 8e- 8a-	.	.	.	.	.	.
*Xped	*	*	*	*	*	*
8r	.	8ee-\) 8eee-	[[	.	.	.
=2	=2	=2	=2	=2	=2	=2
*ped	*	*	*	*	*	*
(8EEn\L 8En	.	(4.dd-^^\ 4.ddd-	.	1r	.	.
8G\ 8B- 8c	.	.	.	.	.	.
8B-\J) 8c 8g	.	.	.	.	.	.
*Xped	*	*	*	*	*	*
8r	.	8cc\ 8ccc	.	.	.	.
*ped	*	*	*	*	*	*
(8FF\L	.	4.gg^^\) 4.ggg	.	.	.	.
8F\ 8A- 8c	.	.	.	.	.	.
8A-\J) 8c 8f	.	.	.	.	.	.
*Xped	*	*	*	*	*	*
8r	.	8ff\ 8fff	.	.	.	.
=3	=3	=3	=3	=3	=3	=3
*ped	*	*	*	*	*	*
8BBB-/L 8BB-	.	(4.dd-^^\ 4.ddd-	>	1r	.	.
8F-X/ 8A- 8B-	.	.	.	.	.	.
8A-/J 8B- 8d-	.	.	.	.	.	.
*Xped	*	*	*	*	*	*
8r	.	8f-X/ 8ff-X	.	.	.	.
*ped	*	*	*	*	*	*
8EE-/L 8E-	.	4.e-^^/) 4.ee-	]	.	.	.
8E-/ 8A- 8c	.	.	.	.	.	.
8A-/J 8c 8e-	.	.	.	.	.	.
*Xped	*	*	*	*	*	*
8r	.	8ffn\ 8fffn	.	.	.	.
=4	=4	=4	=4	=4	=4	=4
*ped	*	*	*	*	*	*
8EE-/L 8E-	.	(4.ee-^^\ 4.eee-	.	1r	.	.
8B-/ 8d- 8e-	.	.	.	.	.	.
8e-/J 8g	.	.	.	.	.	.
*Xped	*	*	*	*	*	*
8r	.	8dd-\ 8bb-	.	.	.	.
*ped	*	*	*	*	*	*
4A-\ 4e- 4a-	.	4cc\) 4aa-	.	.	.	.
*clefG2	*	*	*	*	*	*
!	!	!	!LO:DY:t=pp.:rj	!	!	!
8a-\ 8ee-	.	8ccc\ 8aaa-	pp	.	.	.
*Xped	*	*	*	*	*	*
8r;>	.	8r;>	.	.	.	.
*clefF4	*	*	*	*	*	*
!!LO:LB:g=original
=5||	=5||	=5||	=5||	=5||	=5||	=5||
!	!	!	!LO:DY:rj	!	!	!LO:DY:b:t=p.:rj
(8AA-\L 8A-	.	8c/L 8a-	p	4.cc\	Ko-	p
8E-\	.	8e-/	.	.	.	.
8AA-\ 8A-	.	8c/ 8a-	.	.	.	.
8E-\J)	.	8e-/J	.	8cc\	-mu	.
(8BB-\L 8B-	.	8d-/L 8g	.	4g/	ślub-	.
8E-\	.	8e-/	.	.	.	.
8C\ 8A-	.	8a-/	.	4a-/	-ny	.
8E-\J)	.	8e-/J	.	.	.	.
=6	=6	=6	=6	=6	=6	=6
4D-/	.	8r	.	4b-/	spla-	.
.	.	8B-/ 8f	.	.	.	.
4C/	.	8r	.	4cc/	-tasz	.
.	.	8An/ 8e- 8f	.	.	.	.
4AAn/	.	8r	.	4.ee-\	wie-	.
.	.	8c/ 8e- 8g-X	.	.	.	.
4BB-/	.	8r	.	.	.	.
.	.	8d-/ 8f	.	8dd-\	-niec,	.
=7	=7	=7	=7	=7	=7	=7
2EE-/	.	8G/L	.	4.cc\	Z_róż,	.
.	.	8d-/	.	.	.	.
.	.	8e-/	.	.	.	.
.	.	8d-/J	.	8b-/	li-	.
*2\right	*	*	*	*	*	*
2E-\	.	8G/L	.	(4an/	-lj-	.
.	.	8d-/	.	.	.	.
.	.	8e-/	.	4b-/	-i	.
.	.	8d-/J	.	.	.	.
=8	=8	=8	=8	=8	=8	=8
2EE-/	.	8G/L	.	4.ff\)	i	.
.	.	8d-/	.	.	.	.
.	.	8e-/	.	.	.	.
.	.	8d-/J	.	8ee-\	ty-	.
4AA-/	.	8r	.	4dd-\	-mian-	.
.	.	8A-/ 8d- 8f	.	.	.	.
4AA-/	.	8r	.	4cc\	-ka	.
.	.	8A-/ 8c 8e-	.	.	.	.
!!LO:LB:g=original
=9	=9	=9	=9	=9	=9	=9
2EEn/ 2En	.	8r	.	4.cc\	Jak	.
.	.	8B-/L 8c 8g	<	.	.	.
!	!	!	!	!	!	!LO:HP:b
.	.	8B-/ 8c 8g	.	.	.	<
.	.	8B-/J 8c 8g	.	8cc\	szczę-	.
2EE-X/ 2E-X	.	8r	[	8bn/	-śli-	.
.	.	8An/L 8c 8g-X	.	8cc\	-wy	[
.	.	.	.	8qqee-/	.	.
.	.	8A/ 8c 8g-	.	8.dd-\	ten	.
.	.	8A/J 8c 8g-	.	.	.	.
.	.	.	.	16cc\	mło-	.
*	*	*clefF4	*	*	*	*
=10	=10	=10	=10	=10	=10	=10
*	*	*	*	*2\right	*	*
2DD-/	.	8r	.	2cc^>\	-dzie-	.
.	.	8F\L 8B- 8f	.	.	.	.
.	.	8F\ 8B- 8f	.	.	.	.
.	.	8F\J 8B- 8f	.	.	.	.
2D-/	.	8r	.	4b-/	-niec	.
.	.	8F\L 8B- 8f	.	.	.	.
.	.	8F\ 8B- 8f	.	4r	.	.
.	.	8F\J 8B- 8f	.	.	.	.
*	*	*clefG2	*	*	*	*
=11	=11	=11	=11	=11	=11	=11
2DDn/ 2Dn	.	8r	.	4.b-/	Ko-	.
.	.	8A-/L 8B- 8f	.	.	.	.
.	.	8A-/ 8B- 8f	.	.	.	.
.	.	8A-/J 8B- 8f	.	8b-/	-mu	.
2BBB-/ 2BB-	.	8A-/L 8dn 8f	<	8an/	ślub-	.
.	.	8A-/ 8d 8f	.	8b-/	-ny	.
.	.	.	.	8qqddn/	.	.
.	.	8A-/ 8d 8f	.	8cc/	spla-	.
.	.	8A-/J 8d 8f	[	8b-/	-tasz	.
=12	=12	=12	=12	=12	=12	=12
2EE-/	.	8G/L	.	2.b-/	wie-	.
.	.	8d-/	.	.	.	.
.	.	8e-/	.	.	.	.
.	.	8d-/J	.	.	.	.
2E-\	.	8G/L	>	.	.	.
.	.	8d-/	.	.	.	.
.	.	8e-/	.	4bn/	-niec,	.
.	.	8d-/J	]]	.	.	.
!!LO:LB:g=original
=13	=13	=13	=13	=13	=13	=13
8AA-\L 8A-	.	8c/L 8a-	.	4.cc\	Pew-	.
8E-\	.	8e-/	.	.	.	.
8AA-\ 8A-	.	8c/ 8a-	.	.	.	.
8E-\J	.	8e-/J	.	8cc\	-nie	.
8BB-\L 8B-	.	8d-/L 8g	.	4g/	dla	.
8E-\	.	8e-/	.	.	.	.
8C\ 8A-	.	8a-/	.	4a-/	Twe-	.
8E-\J	.	8e-/J	.	.	.	.
=14	=14	=14	=14	=14	=14	=14
4D-/	.	8r	.	(>4b-/	-go	.
.	.	8B-/ 8f	.	.	.	.
4C/	.	8r	.	4cc\	Ko-	.
.	.	8An/ 8e- 8f	.	.	.	.
4AAn/	.	8r	.	4ee-\)	-chan-	.
.	.	8c/ 8e- 8g-X	.	.	.	.
4BB-/	.	8r	.	8dd-\	-ka?	.
.	.	8d-/ 8f	.	8dd-\	Wy-	.
=15	=15	=15	=15	=15	=15	=15
2EE-/	.	8G/L	.	(4.cc\	-da-	.
.	.	8d-/	.	.	.	.
.	.	8e-/	.	.	.	.
.	.	8d-/J	.	8b-/)	.	.
2E-\	.	8G/L	.	4an/	-ją	.
.	.	8d-/	.	.	.	.
.	.	8e-/	.	4b-/	łzy	.
.	.	8d-/J	.	.	.	.
=16	=16	=16	=16	=16	=16	=16
2EE-/	.	8G/L	.	(4.ff\	i	.
.	.	8d-/	.	.	.	.
.	.	8e-/	.	.	.	.
.	.	8d-/J	.	8b-/	ru-	.
4AA-/	.	8r	.	4dd-\)	-mie-	.
.	.	8A-/ 8d- 8f	.	.	.	.
4AA-/	.	8r	.	4cc\	-niec	.
.	.	8A-/ 8c 8e-	.	.	.	.
!!LO:PB:g=original
=17	=17	=17	=17	=17	=17	=17
8AA-\L 8A-	.	8c/L 8a-	.	4.cc\	Ko-	.
8E-\	.	8e-/	.	.	.	.
8AA-\ 8A-	.	8c/ 8a-	.	.	.	.
8E-\J	.	8e-/J	.	8cc\	-mu	.
8BB-\L 8B-	.	8d-/L 8g	<	4dd-\	ślub-	.
8E-\	.	8e-/	.	.	.	.
8C\ 8A-	.	8a-/	.	4ee-\	-ny	.
8E-\J	.	8e-/J	.	.	.	.
=18	=18	=18	=18	=18	=18	=18
4C/	.	8r	[	4een\	spla-	.
.	.	8B-/ 8en 8g	.	.	.	.
4D-/	.	8r	.	4ff\	-tasz	.
.	.	8A-/ 8d- 8f	.	.	.	.
4En\	.	8r	.	4.gg\	wie-	.
.	.	8B-/ 8d- 8g	.	.	.	.
4F\	.	8r	.	.	.	.
.	.	8A-/ 8c 8f	.	8ff\	-niec,	.
=19	=19	=19	=19	=19	=19	=19
2E-\	.	8c/L	.	4.ff\	Z_róż,	.
.	.	8e-/	.	.	.	.
.	.	8a-/	.	.	.	.
.	.	8e-/J	>	8ee-\	li-	.
4E-\	.	8c/L 8a-	.	4a-/	-lj-	.
.	.	8e-/	.	.	.	.
4BB-/	.	8dn/ 8a- 8b-	.	4b-/	-i	.
.	.	8f/J	.	.	.	.
=20	=20	=20	=20	=20	=20	=20
8EE-/L	.	8cc/L	.	4.cc/	i	.
8E-/	.	8e-/	]	.	.	.
8F/	.	8dn/	.	.	.	.
8G/J	.	8d-X/J	.	8b-/	ty-	.
8AA-/L 8G	.	8d-/L 8b-	.	4b-/	-mian-	.
8E-/	.	8e-/	.	.	.	.
8AA-/ 8A-	.	8c/ 8a-	.	4a-/	-ka	.
8E-/J	.	8e-/J	.	.	.	.
!!LO:LB:g=original
=21	=21	=21	=21	=21	=21	=21
*ped	*	*	*	*	*	*
!	!	!LO:TX:b:i:t=dolce.	!	!	!	!
.	.	8qB-/	.	.	.	.
(8EE-/L	.	4.g/	.	1r	.	.
8BB-/	.	.	.	.	.	.
8E-/	.	.	.	.	.	.
8G/J)	.	8f/	.	.	.	.
(8GG/L	.	(>8e-M</L	.	.	.	.
8BB-/	.	8B-/	.	.	.	.
8E-/	.	8e-/	.	.	.	.
8G/J)	.	8cc/J)	.	.	.	.
*Xped	*	*	*	*	*	*
=22	=22	=22	=22	=22	=22	=22
*ped	*	*	*	*	*	*
!LO:TX:b:t=P:problem:powtórka pedalizacji	!	!	!	!	!	!
(8FF\L	5	(>4b-\	.	1r	.	.
8C\	5	.	.	.	.	.
8F\	.	8a-M</L	.	.	.	.
8A-\J)	.	8g/J	.	.	.	.
(8c\L	.	4.f/)	.	.	.	.
8A-\	.	.	.	.	.	.
8F\	.	.	.	.	.	.
8C\J)	.	8g/	.	.	.	.
*Xped	*	*	*	*	*	*
=23	=23	=23	=23	=23	=23	=23
(8BB-\L	.	4.a-/	.	1r	.	.
8A-\	.	.	.	.	.	.
8B-\	.	.	.	.	.	.
8dn\J)	.	(>8g/	.	.	.	.
.	.	8qb-/	.	.	.	.
(8BB-\L	.	8a-/L	.	.	.	.
8A-\	.	8g/	.	.	.	.
8B-\	.	8a-/	.	.	.	.
8d\J)	.	8cc/J)	.	.	.	.
=24	=24	=24	=24	=24	=24	=24
(8E-\L	.	(>4.b-/	.	1r	.	.
8A-\	.	.	.	.	.	.
8B-\	.	.	.	.	.	.
8dn\J)	.	8a-/	.	.	.	.
(8B-\L	2	8g/L	.	.	.	.
8G\	1	8B-/)	.	.	.	.
8E-\	.	8e-/	.	.	.	.
8BB-\J)	.	8f/J	.	.	.	.
!!LO:LB:g=original
=25	=25	=25	=25	=25	=25	=25
8EE-/L	.	(>4.g/	.	1r	.	.
8BB-/	.	.	.	.	.	.
8E-/	.	.	.	.	.	.
(>8G/J	.	8f/	.	.	.	.
8GG/L	.	8e-M</L	.	.	.	.
8BB-/	.	8B-/)	.	.	.	.
8E-/)	.	8e-/	.	.	.	.
8G/J	.	8cc/J	.	.	.	.
=26	=26	=26	=26	=26	=26	=26
8BB-\L	.	2dn/ 2b-	.	1r	.	.
8F\	.	.	.	.	.	.
8B-\	.	.	.	.	.	.
8F\J	.	.	.	.	.	.
8BB-\L	.	4d/ 4f	.	.	.	.
8B-\	.	.	.	.	.	.
8E-\	.	4d-X/ 4g	.	.	.	.
8B-\J	.	.	.	.	.	.
=27	=27	=27	=27	=27	=27	=27
*	*	*^	*	*	*	*
*	*	*	*2\right	*	*	*	*
8AA-\L	.	(>4b-:/	2c:\ 2e-:	.	1r	.	.
8E-\	.	.	.	.	.	.	.
8A-\	.	8a-/L	.	.	.	.	.
8E-\J	.	8g/J	.	.	.	.	.
!	!	!LO:TX:b:i:t=rall.	!	!	!	!	!
4C/	.	8g:/L	4An:\ 4e-:	.	.	.	.
.	.	8f/)	.	.	.	.	.
4BB-/	.	8g:/	4A-X:\ 4dn:	.	.	.	.
.	.	8f/J	.	.	.	.	.
*	*	*v	*v	*	*	*	*
=28	=28	=28	=28	=28	=28	=28
4EE-/	.	8e-/L	.	2r	.	.
.	.	8G/	.	.	.	.
(8d-\L	.	8ff/	.	.	.	.
8E-\J	.	8g/J	.	.	.	.
8c\L	.	(>8ee-\L	.	4r	.	.
8E-\	.	8g\	.	.	.	.
!	!	!LO:TX:b:i:t=a tempo	!	!	!	!
8B-\)	.	8dd-\)	.	8.r	.	.
8E-\J	.	8g\J	.	.	.	.
.	.	.	.	16cc\	Jed-	.
!!LO:LB:g=original
=29	=29	=29	=29	=29	=29	=29
!	!	!	!LO:DY:t=p.	!	!	!
2AA-/	.	8r	p	4.cc\	-ne-	.
.	.	8e-/L 8a- 8cc	.	.	.	.
.	.	8e-/ 8a- 8cc	.	.	.	.
.	.	8e-/J 8a- 8cc	.	8cc\	-mu	.
2A-\	.	8r	.	4cc\	od-	.
.	.	8c/L 8e- 8a-	.	.	.	.
.	.	8c/ 8e- 8a-	.	8bn/	-da-	.
.	.	8c/J 8e- 8a-	.	8cc/	-jesz	.
=30	=30	=30	=30	=30	=30	=30
!	!	!LO:TX:b:t=cres_cen_do_:problem:dynamics with extention lines:ext=ud	!LO:HP:t=cres_cen_do_	!	!	!
2AAn/	.	8r	<	2ee-^>\	wie-	.
.	.	8c/L 8e- 8g-X	.	.	.	.
.	.	8c/ 8e- 8g-	.	.	.	.
.	.	8c/J 8e- 8g-	.	.	.	.
2BB-/	.	8r	.	4dd-\	-niec	.
.	.	8d-/L 8f	.	.	.	.
.	.	8d-/ 8f	.	4r	.	.
.	.	8d-/J 8f	.	.	.	.
=31	=31	=31	=31	=31	=31	=31
2BBn/	.	8r	.	4.ddn\	Z_róż	.
.	.	8A-/L 8dn 8f	.	.	.	.
.	.	8A-/ 8d 8f	.	.	.	.
.	.	8A-/J 8d 8f	.	8dd\	li-	.
2BB/	.	8r	.	8dd\	-lj-	.
.	.	8A-/L 8d 8f	.	8dd\	-i	.
.	.	8A-/ 8d 8f	.	8cc#X\	i	.
.	.	8A-/J 8d 8f	.	8dd\	ty-	.
=32	=32	=32	=32	=32	=32	=32
2Dn\	.	8r	.	2ff^\	-mian-	.
.	.	8A-/L 8Bn 8f	.	.	.	.
.	.	8A-/ 8B 8f	.	.	.	.
.	.	8A-/J 8B 8f	.	.	.	.
2C/	.	8r	.	(4ee-\	-ka	.
.	.	8A-/L 8e-	.	.	.	.
.	.	8A-/ 8en	.	4een\)	.	.
.	.	8A-/J 8e	[[	.	.	.
!!LO:PB:g=original
=33	=33	=33	=33	=33	=33	=33
!	!	!	!	!	!	!LO:DY:b:rj
2DD-/ 2D-	.	8r	f	4.gg\	Ko-	f
.	.	8B-/L 8d- 8f	.	.	.	.
.	.	8B-/ 8d- 8f	.	.	.	.
.	.	8B-/J 8d- 8f	.	8ff\	-cha	.
2DD-/ 2D-	.	8r	.	8b-/L	cię	.
.	.	8B-/L 8e- 8g	.	(>16cc/L	.	.
.	.	.	.	16b-/JJ	.	.
.	.	8B-/ 8e- 8g	.	16an/LL	dru-	.
.	.	.	.	16b-/JJ	.	.
.	.	8B-/J 8e- 8g	.	16cc\)	-gi	.
.	.	.	.	16dd-\	mło-	.
=34	=34	=34	=34	=34	=34	=34
2CC/ 2C	.	8r	.	2ff^>\	-dzie-	.
.	.	8A-/L 8e- 8a-	.	.	.	.
.	.	8A-/ 8e- 8a-	.	.	.	.
.	.	8A-/J 8e- 8a-	.	.	.	.
2CC/ 2C	.	8r	.	4ee-\	-niec	.
.	.	8A-/L 8e- 8a-	.	.	.	.
.	.	8A-/ 8e- 8a-	.	4r	.	.
.	.	8A-/J 8e- 8a-	.	.	.	.
=35	=35	=35	=35	=35	=35	=35
!	!	!	!LO:DY:rj	!	!	!LO:DY:b:rj
2BBB-/ 2BB-	.	8r	pp	4.b-/	Ty,	pp
.	.	8A-/L 8dn 8f	.	.	.	.
.	.	8A-/ 8d 8f	.	.	.	.
.	.	8A-/J 8d 8f	.	8b-/	jed-	.
2BBB-/ 2BB-	.	8r	.	8an/	-ne-	.
.	.	8A-/L 8d 8f	.	8b-/	-mu	.
.	.	.	.	8qqddn/	.	.
.	.	8A-/ 8d 8f	.	8.cc/	od-	.
.	.	8A-/J 8d 8f	.	.	.	.
.	.	.	.	16b-/	-dasz	.
=36	=36	=36	=36	=36	=36	=36
*	*	*^	*	*	*	*
2EE-/ 2E-	.	8r	2ryy	.	(>[<2b-/	wie-	.
.	.	8G/L 8B- 8e-	.	.	.	.	.
.	.	8G/ 8B- 8e-	.	.	.	.	.
.	.	8G/J 8B- 8e-	.	.	.	.	.
2EE-/ 2E-	.	8r	2G\	.	8b-\L]	.	.
.	.	(<8d-/L 8f	.	.	8ff\)	.	.
.	.	8c/ 8e-	.	.	8ee-\	-niec	.
.	.	8B-/J) 8d-	.	.	8dd-\J	.	.
*	*	*v	*v	*	*	*	*
!!LO:LB:g=original
=37	=37	=37	=37	=37	=37	=37
!	!	!	!LO:DY:rj	!	!	!LO:DY:b:rj
8AA-\L 8A-	.	8c/L 8a-	p	4.cc\	Zo-	p
8E-\	.	8e-/	.	.	.	.
8AA-\ 8A-	.	8c/ 8a-	.	.	.	.
8E-\J	.	8e-/J	.	(8cc\	-staw-	.
8BB-\L 8B-	.	8d-/L 8g	.	4g/	-że	.
8E-\	.	8e-/	.	.	.	.
8C\ 8A-	.	8a-/	.	4a-/)	łzy	.
8E-\J	.	8e-/J	.	.	.	.
=38	=38	=38	=38	=38	=38	=38
4D-/	.	8r	.	4b-/	i	.
.	.	8B-/ 8f	.	.	.	.
4C/	.	8r	.	4cc/	ru-	.
.	.	8An/ 8e- 8f	.	.	.	.
4AAn/	.	8r	.	4.ee-\	-mie-	.
.	.	8c/ 8e- 8g-X	.	.	.	.
4BB-/	.	8r	.	.	.	.
.	.	8d-/ 8f	.	8dd-\	-niec	.
=39	=39	=39	=39	=39	=39	=39
2EE-/	.	8G/L	.	(>4.cc\	Dla	.
.	.	8d-/	.	.	.	.
.	.	8e-/	.	.	.	.
.	.	8d-/J	.	8b-/)	.	.
2E-\	.	8G/L	.	4an/	nie-	.
.	.	8d-/	.	.	.	.
.	.	8e-/	.	4b-/	-szczę-	.
.	.	8d-/J	.	.	.	.
=40	=40	=40	=40	=40	=40	=40
2EE-/	.	8G/L	.	4ff\	-sne-	.
.	.	8d-/	.	.	.	.
.	.	8e-/	.	8.b-/	-go	.
.	.	8d-/J	.	.	.	.
.	.	.	.	16b-/	Ko-	.
4AA-/	.	8r	.	4dd-\	-chan-	.
.	.	8A-/ 8d- 8f	.	.	.	.
4AA-/	.	8r	.	4cc\	-ka,	.
.	.	8A-/ 8c 8e-	.	.	.	.
!!LO:LB:g=original
=41	=41	=41	=41	=41	=41	=41
8AA-\L 8A-	.	8c/L 8a-	.	4.cc\	Gdy	.
8E-\	.	8e-/	.	.	.	.
8AA-\ 8A-	.	8c/ 8a-	.	.	.	.
8E-\J	.	8e-/J	.	8cc\	szczę-	.
8BB-\L 8B-	.	8d-/L 8g	.	4dd-\	-śli-	.
8E-\	.	8e-/	.	.	.	.
8C\ 8A-	.	8a-/	.	4ee-\	-wy	.
8E-\J	.	8e-/J	.	.	.	.
=42	=42	=42	=42	=42	=42	=42
4C/	.	8r	<	4een\	bie-	.
.	.	8B-/ 8en 8g	.	.	.	.
4D-/	.	8r	.	4ff\	-rze	.
.	.	8A-/ 8d- 8f	[	.	.	.
4En\	.	8r	.	4.gg\	wie-	.
.	.	8B-/ 8d- 8g	.	.	.	.
4F\	.	8r	.	.	.	.
.	.	8A-/ 8c 8f	.	8ff\	-niec	.
=43	=43	=43	=43	=43	=43	=43
2E-\	.	8c/L	.	(4.ff\	Z_róż	.
.	.	8e-/	.	.	.	.
.	.	8a-/	.	.	.	.
.	.	8e-/J	.	8ee-\	li-	.
4E-\	.	8c/L 8a-	>	4a-/)	-lj-	.
.	.	8d-/	.	.	.	.
4BB-/	.	8dn/ 8a- 8b-	.	4b-/	-i	.
.	.	8f/J	]]	.	.	.
=44	=44	=44	=44	=44	=44	=44
*^	*	*	*	*	*	*
8EE-/L	2ryy	.	8cc/L	.	4.cc/	i	.
8E-/	.	.	8e-/	.	.	.	.
8F/	.	.	8dn/	.	.	.	.
8G/J	.	.	8d-X/J	.	8b-/	ty-	.
8G/L	N[>4AA-\	.	8d-/L 8b-	.	4b-/	-mian-	.
[>8E-/J	.	.	[>8e-/J	.	.	.	.
4AA-\N] 4E-] 4A-	4ryy	.	4c/ 4e-] 4a-	.	4a-/	-ka.	.
*v	*v	*	*	*	*	*	*
!!LO:LB:g=original
=45||	=45||	=45||	=45||	=45||	=45||	=45||
*ped	*	*	*	*	*	*
(8EE-\L 8E-	.	(4.cc^^\ 4.ccc	p	1r	.	.
8B-\ 8d- 8e-	.	.	.	.	.	.
8d-\J) 8e- 8g	.	.	.	.	.	.
*Xped	*	*	*	*	*	*
8r	.	8b-\) 8bb-	.	.	.	.
*ped	*	*	*	*	*	*
!LO:TX:t=P:problem:mixed beam	!	!	!	!	!	!
!LO:TX:b:t=P:problem:powtórka pedalizacji	!	!	!	!	!	!
(8AAA-/L 8AA-	.	4.ff^^\ 4.fff	<	.	.	.
8A-\ 8c 8e-	.	.	.	.	.	.
8c\J) 8e- 8a-	.	.	.	.	.	.
*Xped	*	*	*	*	*	*
8r	.	8ee-\ 8eee-	[[	.	.	.
=46	=46	=46	=46	=46	=46	=46
*ped	*	*	*	*	*	*
!LO:TX:b:t=P:problem:powtórka pedalizacji	!	!	!	!	!	!
(8EEn\L 8En	.	(4.dd-^^\ 4.ddd-	.	1r	.	.
8G\ 8B- 8c	.	.	.	.	.	.
8B-\J) 8c 8g	.	.	.	.	.	.
*Xped	*	*	*	*	*	*
8r	.	8cc\) 8ccc	.	.	.	.
*ped	*	*	*	*	*	*
!LO:TX:t=P:problem:mixed beam	!	!	!	!	!	!
(8FF/L	.	4.gg^^\ 4.ggg	f	.	.	.
8F\ 8A- 8c	.	.	.	.	.	.
8A-\J) 8c 8f	.	.	.	.	.	.
*Xped	*	*	*	*	*	*
8r	.	8ff\ 8fff	.	.	.	.
=47	=47	=47	=47	=47	=47	=47
(8BBB-\L 8BB-	.	(4.dd-\ 4.ddd-	>	1r	.	.
8F-X\ 8A- 8B-	.	.	.	.	.	.
8A-\J) 8B- 8d-	.	.	.	.	.	.
8r	.	8f-X/) 8ff-X	.	.	.	.
(8EE-\L 8E-	.	4.e-/ 4.ee-	.	.	.	.
8E-\ 8A- 8c	.	.	]	.	.	.
8A-\J) 8c 8e-	.	.	.	.	.	.
8r	.	8ffn\ 8fffn	.	.	.	.
=48	=48	=48	=48	=48	=48	=48
(8EE-\L 8E-	.	(4.ee-\ 4.eee-	.	1r;>	.	.
8B-\ 8d- 8e-	.	.	.	.	.	.
8e-\J) 8g	.	.	.	.	.	.
8r	.	8dd-\ 8bb-	.	.	.	.
*ped	*	*	*	*	*	*
4A-\ 4e- 4a-	.	4cc\) 4aa-	.	.	.	.
*clefG2	*	*	*	*	*	*
!	!	!	!LO:DY:t=pp.:rj	!	!	!
8a-\ 8ee- 8aa-	.	8ccc\ 8aaa-	pp	.	.	.
!	!	!LO:TX:b:t=Fine	!	!	!	!
8r;	.	8r;	.	.	.	.
*Xped	*	*	*	*	*	*
!!LO:PB:g=original
==	==	==	==	==	==	==
*-	*-	*-	*-	*-	*-	*-
!!!system-decoration: s1{(s2,s3)}
!!!ENC:Berenika Jozajtis
!!!END:2021-05-26
!!!RDF**kern: < = below
!!!RDF**kern: > = above
!!!RDF**kern: N = linked
!!!ENC: Marta Chmielewska
!!!END: 2021-06-08
